src/img/projects/node.svg

<?xml version="1.0" encoding="UTF-8"?>
<svg width="90px" height="90px" viewBox="0 0 90 90" version="1.1" xmlns="http://www.w3.org/2000/svg" xmlns:xlink="http://www.w3.org/1999/xlink">
    <!-- Generator: Sketch 41.2 (35397) - http://www.bohemiancoding.com/sketch -->
    <title>community/card/logo/node</title>
    <desc>Created with Sketch.</desc>
    <defs></defs>
    <g id="Symbols" stroke="none" stroke-width="1" fill="none" fill-rule="evenodd">
        <g id="community/card/logo/node" fill="#2EDE98">
            <path d="M45.0391737,78.9606557 C44.1600636,78.9606557 43.2870868,78.7308152 42.5183766,78.2862953 L34.4898523,73.539446 C33.2918092,72.8690879 33.8765197,72.6320559 34.271097,72.4939881 C35.8718952,71.9393471 36.194917,71.8116579 37.9020262,70.844407 C38.0798927,70.744646 38.3150035,70.782156 38.4990033,70.8899052 L44.6650408,74.5489875 C44.8899294,74.6726928 45.2047735,74.6726928 45.4112622,74.5489875 L69.4539017,60.681143 C69.6787903,60.5534538 69.8219013,60.295685 69.8219013,60.0307248 L69.8219013,32.302125 C69.8219013,32.030811 69.6787903,31.777067 69.4498128,31.6397756 L45.4153511,17.7831473 C45.1925069,17.6538236 44.8981072,17.6538236 44.6732186,17.7831473 L20.6448902,31.6438616 C20.4118238,31.777067 20.2646239,32.0387788 20.2646239,32.302125 L20.2646239,60.0307248 C20.2646239,60.295685 20.4118238,60.5470795 20.6428457,60.6731752 L27.2300383,64.4759028 C30.8037231,66.2611613 32.9933207,64.1582733 32.9933207,62.0458239 L32.9933207,34.6683593 C32.9933207,34.2814099 33.3040759,33.975773 33.6904754,33.975773 L36.7407831,33.975773 C37.1210493,33.975773 37.4358934,34.2814099 37.4358934,34.6683593 L37.4358934,62.0458239 C37.4358934,66.8118184 34.8394519,69.5451642 30.3171459,69.5451642 C28.9269253,69.5451642 27.8331487,69.5451642 24.7787522,68.0408424 L18.4736926,64.4136517 C16.9158277,63.5142498 15.9528955,61.8319394 15.9528955,60.0307248 L15.9528955,32.302125 C15.9528955,30.500175 16.9158277,28.8187635 18.4736926,27.9224874 L42.5183766,14.0386868 C44.0394415,13.178368 46.0613948,13.178368 47.5701931,14.0386868 L71.6128326,27.9224874 C73.1706975,28.8226453 74.1377186,30.500175 74.1377186,32.302125 L74.1377186,60.0307248 C74.1377186,61.8319394 73.1706975,63.5078756 71.6128326,64.4136517 L47.5701931,78.2862953 C46.8014828,78.7308152 45.9305505,78.9606557 45.0391737,78.9606557 Z M51.177871,58.975986 C40.6551273,58.975986 38.4512187,54.1500286 38.4512187,50.1015658 C38.4512187,49.7168637 38.7619739,49.4095924 39.146329,49.4095924 L42.2559255,49.4095924 C42.6034807,49.4095924 42.891747,49.6586374 42.946947,49.99778 C43.4151242,53.1605905 44.8155671,54.7566034 51.177871,54.7566034 C56.2419542,54.7566034 58.3988406,53.6114866 58.3988406,50.9259273 C58.3988406,49.3777212 57.7875524,48.2285183 49.9164502,47.4585013 C43.3374354,46.8080014 39.2689956,45.3556133 39.2689956,40.0962482 C39.2689956,35.2481444 43.3578798,32.3568522 50.2128943,32.3568522 C57.9163523,32.3568522 61.7271924,35.0287233 62.2096808,40.760232 C62.2280807,40.9582014 62.1585697,41.1473857 62.0277254,41.2950966 C61.8948367,41.4330009 61.7108369,41.5169694 61.5186593,41.5169694 L58.3967962,41.5169694 C58.0737743,41.5169694 57.7875524,41.2871288 57.7221303,40.974137 C56.9738645,37.6462498 55.1522665,36.5824455 50.2128943,36.5824455 C44.6826783,36.5824455 44.0407235,38.5082031 44.0407235,39.950376 C44.0407235,41.6979816 44.7992115,42.207104 52.2655142,43.1942948 C59.6541281,44.1704532 63.1644352,45.5525612 63.1644352,50.7424634 C63.1644352,55.9777209 58.7954624,58.975986 51.177871,58.975986 Z" id="node"></path>
        </g>
    </g>
</svg>

<svg width="90" height="90" viewBox="0 0 90 90" xmlns="http://www.w3.org/2000/svg"><title>community/card/logo/node</title><path d="M45.04 78.96c-.88 0-1.753-.23-2.522-.674L34.49 73.54c-1.198-.67-.613-.907-.219-1.045 1.6-.555 1.924-.682 3.631-1.65.178-.1.413-.062.597.046l6.166 3.659c.225.124.54.124.746 0l24.043-13.868a.756.756 0 0 0 .368-.65V32.302a.775.775 0 0 0-.372-.662L45.415 17.783a.758.758 0 0 0-.742 0l-24.028 13.86a.772.772 0 0 0-.38.66V60.03c0 .265.147.516.378.642l6.587 3.803c3.574 1.785 5.763-.318 5.763-2.43V34.668c0-.387.311-.692.697-.692h3.05c.381 0 .696.305.696.692v27.378c0 4.766-2.597 7.5-7.119 7.5-1.39 0-2.484 0-5.538-1.505l-6.305-3.627a5.072 5.072 0 0 1-2.521-4.383V32.302c0-1.802.963-3.483 2.52-4.38L42.519 14.04c1.521-.86 3.543-.86 5.052 0l24.043 13.883a5.07 5.07 0 0 1 2.525 4.38v27.729a5.083 5.083 0 0 1-2.525 4.383L47.57 78.286a5.046 5.046 0 0 1-2.53.675zm6.138-19.984c-10.523 0-12.727-4.826-12.727-8.874 0-.385.311-.692.695-.692h3.11c.347 0 .636.249.69.588.47 3.163 1.87 4.759 8.232 4.759 5.064 0 7.22-1.146 7.22-3.831 0-1.548-.61-2.697-8.482-3.467-6.579-.651-10.647-2.103-10.647-7.363 0-4.848 4.089-7.74 10.944-7.74 7.703 0 11.514 2.673 11.997 8.404a.705.705 0 0 1-.182.535.713.713 0 0 1-.51.222h-3.121a.693.693 0 0 1-.675-.543c-.748-3.328-2.57-4.392-7.51-4.392-5.53 0-6.171 1.926-6.171 3.368 0 1.748.758 2.257 8.225 3.244 7.388.976 10.898 2.359 10.898 7.548 0 5.236-4.369 8.234-11.986 8.234z" fill="#2EDE98" fill-rule="evenodd"/></svg>
